src/pos-icons/phone-lock.svg

<svg height="24" viewBox="0 0 24 24" width="24" xmlns="http://www.w3.org/2000/svg"><path d="m19.2 4h-3.4v-.5c0-.94.76-1.7 1.7-1.7s1.7.76 1.7 1.7m.8.5v-.5a2.5 2.5 0 0 0 -2.5-2.5 2.5 2.5 0 0 0 -2.5 2.5v.5a1 1 0 0 0 -1 1v4a1 1 0 0 0 1 1h5a1 1 0 0 0 1-1v-4a1 1 0 0 0 -1-1m0 11.5c-1.25 0-2.45-.2-3.57-.57-.35-.11-.74-.03-1.02.25l-2.2 2.2c-2.83-1.44-5.15-3.76-6.59-6.59l2.2-2.2c.28-.28.36-.67.25-1.02-.37-1.12-.57-2.32-.57-3.57a1 1 0 0 0 -1-1h-3.5a1 1 0 0 0 -1 1 17 17 0 0 0 17 17 1 1 0 0 0 1-1v-3.5a1 1 0 0 0 -1-1z"/></svg>

<?xml version="1.0" encoding="UTF-8"?><!DOCTYPE svg PUBLIC "-//W3C//DTD SVG 1.1//EN" "http://www.w3.org/Graphics/SVG/1.1/DTD/svg11.dtd"><svg xmlns="http://www.w3.org/2000/svg" xmlns:xlink="http://www.w3.org/1999/xlink" version="1.1" id="mdi-phone-lock" width="24" height="24" viewBox="0 0 24 24"><path d="M19.2,4H15.8V3.5C15.8,2.56 16.56,1.8 17.5,1.8C18.44,1.8 19.2,2.56 19.2,3.5M20,4V3.5A2.5,2.5 0 0,0 17.5,1A2.5,2.5 0 0,0 15,3.5V4A1,1 0 0,0 14,5V9A1,1 0 0,0 15,10H20A1,1 0 0,0 21,9V5A1,1 0 0,0 20,4M20,15.5C18.75,15.5 17.55,15.3 16.43,14.93C16.08,14.82 15.69,14.9 15.41,15.18L13.21,17.38C10.38,15.94 8.06,13.62 6.62,10.79L8.82,8.59C9.1,8.31 9.18,7.92 9.07,7.57C8.7,6.45 8.5,5.25 8.5,4A1,1 0 0,0 7.5,3H4A1,1 0 0,0 3,4A17,17 0 0,0 20,21A1,1 0 0,0 21,20V16.5A1,1 0 0,0 20,15.5Z" /></svg>
